_includes/icons/ios-json.svg

<svg fill="#666" height="50" viewBox="0 0 50 50" width="50" xmlns="http://www.w3.org/2000/svg"><path d="m6 0v50h38v-35.40625l-.28125-.3125-14-14-.3125-.28125zm2 2h20v14h14v32h-34zm22 1.4375 10.5625 10.5625h-10.5625zm-3.3125 20.71875c-1.988281.269531-3.21875 2.566406-3.21875 6.09375 0 3.839844 1.289063 6.125 3.4375 6.125 1.332031 0 3.5625-.824219 3.5625-6.21875 0-3.773437-1.261719-6-3.375-6-.140625 0-.273437-.019531-.40625 0zm-6.8125.03125c-1.929687 0-3.28125 1.332031-3.28125 3.25 0 1.214844.753906 2.351563 2.25 3.375.894531.675781 1.40625 1.253906 1.40625 2.1875 0 1.039063-.625 1.6875-1.65625 1.6875-.492187 0-1.15625-.203125-1.5-.4375l-.28125-.1875-.4375 1.625.15625.09375c.359375.265625 1.226563.5625 2.0625.5625 2.039063 0 3.46875-1.429687 3.46875-3.46875 0-1.386719-.664062-2.496094-2.09375-3.5-1.121094-.808594-1.59375-1.171875-1.59375-2.15625 0-.664062.433594-1.375 1.40625-1.375.652344 0 1.070313.238281 1.21875.34375l.3125.1875.4375-1.625-.15625-.09375c-.316406-.234375-.949219-.46875-1.71875-.46875zm-7 .09375v8.5c0 1.796875-.578125 1.9375-1.25 1.9375-.242187 0-.433594-.023437-.5625-.0625l-.28125-.09375-.15625 1.59375.15625.0625c.234375.089844.582031.15625.96875.15625 2.003906 0 2.9375-1.15625 2.9375-3.625v-8.46875zm19.53125 0v11.9375h1.65625v-4.1875c0-1.53125 0-2.667969-.03125-3.65625.242188.695313.523438 1.410156.84375 2.1875l2.21875 5.65625h1.65625v-11.9375h-1.6875v4.34375c0 1.300781.042969 2.40625.09375 3.625-.246094-.675781-.535156-1.359375-.78125-2l-2.34375-5.96875zm-5.4375 1.53125c1.503906 0 1.625 3.367188 1.625 4.40625 0 2.8125-.589844 4.5-1.59375 4.5-1.046875 0-1.65625-1.675781-1.65625-4.46875 0-1.046875.089844-4.4375 1.625-4.4375z"/></svg>

<svg xmlns="http://www.w3.org/2000/svg" viewBox="0 0 50 50" width="50" height="50" fill="#666"><path d="M 6 0 L 6 50 L 44 50 L 44 14.59375 L 43.71875 14.28125 L 29.71875 0.28125 L 29.40625 0 Z M 8 2 L 28 2 L 28 16 L 42 16 L 42 48 L 8 48 Z M 30 3.4375 L 40.5625 14 L 30 14 Z M 26.6875 24.15625 C 24.699219 24.425781 23.46875 26.722656 23.46875 30.25 C 23.46875 34.089844 24.757813 36.375 26.90625 36.375 C 28.238281 36.375 30.46875 35.550781 30.46875 30.15625 C 30.46875 26.382813 29.207031 24.15625 27.09375 24.15625 C 26.953125 24.15625 26.820313 24.136719 26.6875 24.15625 Z M 19.875 24.1875 C 17.945313 24.1875 16.59375 25.519531 16.59375 27.4375 C 16.59375 28.652344 17.347656 29.789063 18.84375 30.8125 C 19.738281 31.488281 20.25 32.066406 20.25 33 C 20.25 34.039063 19.625 34.6875 18.59375 34.6875 C 18.101563 34.6875 17.4375 34.484375 17.09375 34.25 L 16.8125 34.0625 L 16.375 35.6875 L 16.53125 35.78125 C 16.890625 36.046875 17.757813 36.34375 18.59375 36.34375 C 20.632813 36.34375 22.0625 34.914063 22.0625 32.875 C 22.0625 31.488281 21.398438 30.378906 19.96875 29.375 C 18.847656 28.566406 18.375 28.203125 18.375 27.21875 C 18.375 26.554688 18.808594 25.84375 19.78125 25.84375 C 20.433594 25.84375 20.851563 26.082031 21 26.1875 L 21.3125 26.375 L 21.75 24.75 L 21.59375 24.65625 C 21.277344 24.421875 20.644531 24.1875 19.875 24.1875 Z M 12.875 24.28125 L 12.875 32.78125 C 12.875 34.578125 12.296875 34.71875 11.625 34.71875 C 11.382813 34.71875 11.191406 34.695313 11.0625 34.65625 L 10.78125 34.5625 L 10.625 36.15625 L 10.78125 36.21875 C 11.015625 36.308594 11.363281 36.375 11.75 36.375 C 13.753906 36.375 14.6875 35.21875 14.6875 32.75 L 14.6875 24.28125 Z M 32.40625 24.28125 L 32.40625 36.21875 L 34.0625 36.21875 L 34.0625 32.03125 C 34.0625 30.5 34.0625 29.363281 34.03125 28.375 C 34.273438 29.070313 34.554688 29.785156 34.875 30.5625 L 37.09375 36.21875 L 38.75 36.21875 L 38.75 24.28125 L 37.0625 24.28125 L 37.0625 28.625 C 37.0625 29.925781 37.105469 31.03125 37.15625 32.25 C 36.910156 31.574219 36.621094 30.890625 36.375 30.25 L 34.03125 24.28125 Z M 26.96875 25.8125 C 28.472656 25.8125 28.59375 29.179688 28.59375 30.21875 C 28.59375 33.03125 28.003906 34.71875 27 34.71875 C 25.953125 34.71875 25.34375 33.042969 25.34375 30.25 C 25.34375 29.203125 25.433594 25.8125 26.96875 25.8125 Z"/></svg>
